X:1
T:Title
%%score 1 { 2 | 3 }
L:1/8
Q:1/4=100
M:4/4
K:Ab
V:1 treble nm="Grand Piano, Soprano"
V:2 treble nm="Choir Pad, Bass"
V:3 bass 
V:1
 [CE]2 [EA][EA] [EA][EA] [Ac]2 | [CE][CE] [DF]2 [DA]2 [CE]2 | [CE][CE][EA][EA] [EA][EA][EA][EA] | %3
w: By~John~Marchant~Whyte * * * * *|||
 [EG]>[EA] [EB]6 | [CE]2 [EA][EA] [EA][EA] [Ac]2 | [CE][CE] [DF]2 [DA]2 [CE]2 | %6
w: |||
 [CE][CE][DF]D [DF][FA][EG]E | [DG]>[DB] [CA]6 | [EA][EA] [EG]2 [GB]2 [Gd]2 | %9
w: |||
 [CE][CE] [EA]2 [Ac]2 [Ac]2 | [Ac][Ac] [GB]2 [GB]2 [GB][FA] | [EG][=DF] [EG]6 | %12
w: |||
 [CE]2 [EA][EA] [EA][EA] [Ac]2 | [CE][CE] [DF]2 [DA]2 [CE]2 | [CE][CE][DF]D [DF][FA][EG]E | %15
w: |||
 [DG]>[DB] [CA]6 | [Ac]>[Bd] [ce]4- [ce]/ z/ [Ac] | [df][ce] [ce]2 [Bd]4 | %18
w: |||
 [GB][Ac] [Bd]4- [Bd]/ z/ [Ac] | [ce]>[Bd] [Ac]6 | [CE][CE] [DF]2 [FA]2 [Fd]2- | %21
w: |||
 [Fd][DF] [DF]2 [CE]4 | [CE][CE] [EA]2 [Ac]2 [Ac]2- | [Ac][Ae] [Ae]2 [Gd]4 | %24
w: |||
 [CE][CE][DF]D [DF][FA][EG]E | [DG]>[DB] [CA]6- | [CA]2 z2 z4 |] %27
w: |||
V:2
 A,2 CC CC E2 | A,A, A,2 A,2 A,2 | A,A,[K:treble]CC CCCC | B,>C D6 | A,2 CC CC E2 | %5
 A,A, A,2 A,2 A,2 | A,A,A,A, A,A,B,B, | B,>B, A,6 | CC B,2 D2 B,2 | A,A, C2 E2 E2 | %10
 EE E2 E2 E[K:bass]B, | B,B, B,6 | A,2[K:treble] CC CC E2 | A,A, A,2 A,2 A,2 | A,A,A,A, A,A,B,B, | %15
 B,>B, A,6 | z4[K:treble] CCCC | DCCC E>E E2 | z4 EEEE | EEEE E>E E2 | A,A, A,2 A,2 A,2- | %21
 A,A, A,2 A,4 | A,A,[K:treble] C2 E2 E2- | EC C2[K:bass] B,4 | A,A,A,A, A,A,B,B, | B,>B, A,6- | %26
 A,2 z2 z4 |] %27
V:3
 E,2 A,A, A,A, A,2 | C,C, D,2 D,2 A,,2 | z2 A,A, A,A,A,A, | E,>E, E,6 | E,2 A,A, A,A, A,2 | %5
 E,E, D,2 D,2 A,,2 | C,C,D,D, D,D,E,E, | E,>E, A,,6 | A,A, E,2 E,2 E,2 | E,E, A,2 A,2 A,2 | %10
 A,A, B,2 B,2 B,,B,, | B,,B,, E,6 | E,2 A,A, A,A, A,2 | C,C, D,2 D,2 A,,2 | C,C,D,D, D,D,E,E, | %15
 E,>E, A,,6 | z4 A,A,A,A, | A,A,E,E, E,>E, E,2 | z4 E,E,E,E, | E,E,A,A, A,>A, A,2 | %20
 A,,A,, D,2 D,2 D,2- | D,D, A,,2 A,,4 | A,,A,, A,2 A,2 A,2- | A,A, E,2 E,4 | C,C,D,D, D,D,E,E, | %25
 E,>E, A,,6- | A,,2 z2 z4 |] %27

